icons/special/glyph_keyboard_m.svg

<svg xmlns="http://www.w3.org/2000/svg" width="24" height="24" viewBox="0 0 24 24" fill="none"><rect width="24" height="24" fill="none"/>
<g clip-path="url(#clip0)">
<path fill-rule="evenodd" clip-rule="evenodd" d="M0 7C9.65646e-08 5.89543 0.895432 5 2 5L22 5C23.1046 5 24 5.89543 24 7L24 17C24 18.1046 23.1046 19 22 19H2C0.89543 19 8.49134e-07 18.1046 9.45698e-07 17L0 7ZM4.5 12.9999C3.67157 12.9999 3 13.6714 3 14.4999C3 15.3283 3.67157 15.9999 4.5 15.9999C5.32843 15.9999 6 15.3283 6 14.4999C6 13.6715 5.32843 12.9999 4.5 12.9999ZM4.5 7.99988C3.67157 7.99988 3 8.67145 3 9.49988C3 10.3283 3.67157 10.9999 4.5 10.9999C5.32843 10.9999 6 10.3283 6 9.49988C6 8.67145 5.32843 7.99988 4.5 7.99988ZM8 9.49988C8 8.67145 8.67157 7.99988 9.5 7.99988C10.3284 7.99988 11 8.67145 11 9.49988C11 10.3283 10.3284 10.9999 9.5 10.9999C8.67157 10.9999 8 10.3283 8 9.49988ZM14.5 7.99988C13.6716 7.99988 13 8.67145 13 9.49988C13 10.3283 13.6716 10.9999 14.5 10.9999C15.3284 10.9999 16 10.3283 16 9.49988C16 8.67145 15.3284 7.99988 14.5 7.99988ZM18 9.49988C18 8.67145 18.6716 7.99988 19.5 7.99988C20.3284 7.99988 21 8.67145 21 9.49988C21 10.3283 20.3284 10.9999 19.5 10.9999C18.6716 10.9999 18 10.3283 18 9.49988ZM14.5 15.9999H9.5C8.67157 15.9999 8 15.3283 8 14.4999C8 13.6715 8.67157 12.9999 9.5 12.9999H14.5C15.3284 12.9999 16 13.6715 16 14.4999C16 15.3283 15.3284 15.9999 14.5 15.9999ZM18 14.4999C18 13.6714 18.6716 12.9999 19.5 12.9999C20.3284 12.9999 21 13.6714 21 14.4999C21 15.3283 20.3284 15.9999 19.5 15.9999C18.6716 15.9999 18 15.3283 18 14.4999Z" fill="black"/>
</g>
<defs>
<clipPath id="clip0">
<rect width="24" height="24" fill="white" transform="translate(24 24) rotate(-180)"/>
</clipPath>
</defs>
</svg>

<svg xmlns="http://www.w3.org/2000/svg" width="24" height="24" fill="none"><path d="M0 0h24v24H0z"/><g clip-path="url(#a)"><path fill-rule="evenodd" clip-rule="evenodd" d="M0 7a2 2 0 0 1 2-2h20a2 2 0 0 1 2 2v10a2 2 0 0 1-2 2H2a2 2 0 0 1-2-2V7zm4.5 6a1.5 1.5 0 1 0 0 3 1.5 1.5 0 0 0 0-3zm0-5a1.5 1.5 0 1 0 0 3 1.5 1.5 0 0 0 0-3zM8 9.5a1.5 1.5 0 1 1 3 0 1.5 1.5 0 0 1-3 0zM14.5 8a1.5 1.5 0 1 0 0 3 1.5 1.5 0 0 0 0-3zM18 9.5a1.5 1.5 0 1 1 3 0 1.5 1.5 0 0 1-3 0zM14.5 16h-5a1.5 1.5 0 0 1 0-3h5a1.5 1.5 0 0 1 0 3zm3.5-1.5a1.5 1.5 0 1 1 3 0 1.5 1.5 0 0 1-3 0z" fill="#000"/></g><defs><clipPath id="a"><path fill="#fff" transform="rotate(-180 12 12)" d="M0 0h24v24H0z"/></clipPath></defs></svg>
